X:1
T:Title
%%score { ( 1 3 ) | ( 2 4 ) }
L:1/8
M:4/4
K:Ab
V:1 treble nm="Grand Piano"
V:3 treble 
V:2 bass 
V:4 bass 
V:1
 z4 z2[Q:1/4=100] [A,C]>[B,D] | [CE]2 [CE]2 [DF]>[EG] [FA]>[=EB] | [Ec]2 [Ec]2 [Ec]2 [Ac]>[GB] | %3
 [FA]3 [=EG] [FA]>[FB] [FA]>F | E4 z4[K:bass] | [A,CE]2 [A,CE]2 [A,DF]>[A,EG] [A,FA]>[=EB] | %6
 [Ec]2 [Ec]2 [Ec]2 [E=d]>[Ec] | [EB]3 [EG] [=DA]>[DF] [DG]>[DA] | B6 z2 | c4 _c4 | c4 A4 | %11
 F2 A>A [Fd]2 [A,DFA]2 | [Ec]6 z2 | [=Ec]2 [GB]>[FA] [EG]2 [GB]2 | A2 G2 F4 | %15
 F2 F>[FG] [FA]2 [FB]2 | [=Ec]2 [Ec]2 [_Ed]4 | [EA]2 z2 _c4 | c4 A4 | F2 A>A [Fd]2 [A,DFA]2 | %20
 [Ec]6 z2 | [_Ge]2 [Gc]>[GB] [GA]2 [GA]2 | [FA]2 [Fd]2 [EFc]2 [DFB]2 | c2 A>F E2 B2 | %24
[M:3/4] [CA]6 |] %25
V:2
 z4 z2 [A,,E,]>[A,,E,] | [A,,A,]2 [A,,A,]2 [D,A,]>[D,A,] [D,A,]>[D,A,] | %2
 [A,,A,]2 [A,,A,]2 [A,,A,]2 [A,,A,]>[C,A,] | [D,A,]3 [D,B,] [D,A,]>[D,A,] [D,A,]>[D,A,D] | %4
 [A,C]6 z2 | A,,2 A,,2 D,>D, D,>[D,A,] | [A,,A,]2 [A,,E,]2 [A,,F,]2 [=A,,_G,]>[A,,G,] | %7
 [B,,G,]3 [B,,B,] [B,,B,]>[B,,B,] [B,,B,]>[B,,A,] | [G,D]6 z2 | A,,2 E,2 A,,2 F,2 | %10
 A,,2 E,2 C,2 [E,A,C]2 | [D,D]2[K:treble] F>F[K:bass] D,2 F,2 | %12
 A,,2 [E,A,]>[E,A,] [E,A,]2 [E,A,]2 | [C,G,]2 [C,C]>[C,C] [C,C]2 [=E,C]2 | %14
 [F,CF]2 [F,B,=E]2 [F,A,]4 | [D,A,]2 [D,A,]>[D,G,] [D,F,]2 [D,F,]2 | [C,G,]2 [C,G,]2 [B,,G,]4 | %17
 A,,2 E,2 A,,2 F,2 | A,,2 E,2 C,2 [E,A,C]2 | [D,D]2[K:treble] F>F[K:bass] D,2 F,2 | %20
 A,,2 [E,A,]>[E,A,] [E,A,]2 [E,A,]2 | [A,,A,]2 [A,,A,]>[A,,A,] [A,,A,]2 [C,A,]2 | %22
 [D,A,]2 [B,,B,]2 C,2 D,2 | [E,A,E]2 [E,CE]>[E,A,C] [E,G,D]2 [E,G,D]2 |[M:3/4] [A,,E,A,]6 |] %25
V:3
 x8 | x8 | x8 | x8 | z2 G>F E2[K:bass] [E,A,C]>[E,B,D] | x8 | x8 | x8 | z2 (3EEE E2 E2 | %9
 [EA]2 [A,EA]2 [=DA]2 [A,DA]2 | [EA]2 [A,EA]2 E2 E2 | x8 | z2 C>C C2 C2 | x8 | x8 | x8 | x8 | %17
 c2- [A,EAc]2 [=DA]2 [A,DA]2 | [EA]2 [A,EA]2 E2 E2 | x8 | z2 C>C C2 C2 | x8 | x8 | x8 | %24
[M:3/4] x6 |] %25
V:4
 x8 | x8 | x8 | x8 | z2 G,>F, E,2 A,,>A,, | x8 | x8 | x8 | E,2 (3E,E,E, E,2 E,2 | x8 | x8 | %11
 z2[K:treble] [F,A,D]2[K:bass] z4 | x8 | x8 | x8 | x8 | x8 | x8 | x8 | %19
 z2[K:treble] [F,A,D]2[K:bass] z4 | x8 | x8 | x8 | x8 |[M:3/4] x6 |] %25

